img/svgicons/telegram.svg

<svg width="31" height="31" viewBox="0 0 31 31" fill="none" xmlns="http://www.w3.org/2000/svg">
<circle cx="15.5" cy="15.5" r="15.5" fill="#337D5A"/>
<g clip-path="url(#clip0_9_122)">
<path d="M18.2704 22.2613C18.161 22.2613 18.0524 22.229 17.9592 22.1658L14.4391 19.778L12.5511 21.1365C12.403 21.243 12.2121 21.2698 12.0402 21.2083C11.8685 21.1467 11.7381 21.0045 11.6915 20.8281L10.7435 17.2355L7.35622 15.9403C7.14297 15.8587 7.00155 15.6547 7 15.4264C6.99845 15.1981 7.13706 14.9921 7.34927 14.9077L20.229 9.78272C20.2875 9.75789 20.3493 9.74356 20.4117 9.73972C20.434 9.73839 20.4564 9.73839 20.4786 9.73964C20.6078 9.74733 20.7347 9.79994 20.8337 9.89703C20.8439 9.90707 20.8537 9.91734 20.8629 9.92806C20.9449 10.0218 20.99 10.136 20.9985 10.2524C21.0006 10.2816 21.0004 10.3112 20.9979 10.3409C20.9961 10.362 20.9931 10.3831 20.9888 10.404L18.8147 21.8109C18.7798 21.9942 18.6551 22.1476 18.4827 22.219C18.4144 22.2474 18.3422 22.2613 18.2704 22.2613ZM14.7482 18.6484L17.8838 20.7753L19.5754 11.8994L13.4657 17.7785L14.7334 18.6384C14.7385 18.6416 14.7434 18.645 14.7482 18.6484ZM12.1379 18.1754L12.5577 19.7663L13.4623 19.1154L12.2778 18.3119C12.2228 18.2747 12.1756 18.2282 12.1379 18.1754ZM9.07894 15.4123L11.4048 16.3015C11.5714 16.3652 11.6972 16.5053 11.7427 16.6778L12.0377 17.7956C12.0512 17.6667 12.1097 17.5454 12.2046 17.454L18.0263 11.8521L9.07894 15.4123Z" fill="white"/>
</g>
<defs>
<clipPath id="clip0_9_122">
<rect width="14" height="14" fill="white" transform="translate(7 9)"/>
</clipPath>
</defs>
</svg>

<svg width="31" height="31" fill="none" xmlns="http://www.w3.org/2000/svg"><circle cx="15.5" cy="15.5" r="15.5" fill="#337D5A"/><g clip-path="url(#a)"><path d="M18.27 22.261a.554.554 0 0 1-.31-.095l-3.52-2.388-1.889 1.359a.555.555 0 0 1-.86-.309l-.948-3.593-3.387-1.295a.554.554 0 0 1-.007-1.032l12.88-5.125a.555.555 0 0 1 .76.621l-2.174 11.407a.554.554 0 0 1-.545.45Zm-3.522-3.613 3.136 2.127 1.691-8.876-6.11 5.88 1.268.86.015.01Zm-2.61-.473.42 1.591.904-.65-1.184-.804a.552.552 0 0 1-.14-.137Zm-3.06-2.763 2.327.89a.554.554 0 0 1 .338.376l.295 1.118a.555.555 0 0 1 .167-.342l5.821-5.602-8.947 3.56Z" fill="#fff"/></g><defs><clipPath id="a"><path fill="#fff" transform="translate(7 9)" d="M0 0h14v14H0z"/></clipPath></defs></svg>
